embeds/nextgen17/_source/logo.svg

<svg width="419" height="94" viewBox="0 0 419 94" xmlns="http://www.w3.org/2000/svg"><title>Title</title><desc>Created with Sketch.</desc><g fill="none"><path d="M291 29.343h18.431c0-9.654.549-16.785 1.317-24.575h-12.946c-3.62 7.241-5.924 15.688-6.802 24.575zm26.659 51.453h41.689v-10.642l-9.545-1.865v-64.289h-10.751l-22.271 10.532v10.642l10.642-.768v43.883l-9.764 1.865v10.642zm53.318 0h24.794l23.148-63.741v-12.287h-54.415l-1.097 23.478h11.958l2.852-7.789h25.891v.549l-33.132 59.791z" fill="#EC2991"/><path d="M.84 40h16.98v-5.46l-2.52-.66v-17.46c1.26-.42 2.46-.78 4.02-.78 2.52 0 3.72.84 3.72 3.42v14.82l-2.52.66v5.46h16.74v-5.46l-3.18-.84v-18.48c0-5.7-3.42-7.92-8.34-7.92-4.44 0-7.5 1.56-10.56 3.9h-.36v-3.42l-.96-.42-13.2 1.38v5.58l3.6.96v18.42l-3.42.84v5.46zm55.2.78c-11.22 0-17.1-6.06-17.1-16.86 0-10.5 6.48-16.62 16.2-16.62 9.9 0 14.58 4.92 14.58 18.36h-19.38c.6 5.64 3.6 7.62 8.7 7.62 4.2 0 6.9-.78 9.18-1.5v5.82c-2.28 1.56-6.06 3.18-12.18 3.18zm-5.7-20.22l8.7-.36c0-4.98-1.68-6.48-4.02-6.48-2.46 0-4.26 1.5-4.68 6.84zm21.42 19.44h13.68v-5.46l-2.58-.6 4.02-5.88h.18l4.02 5.88-2.52.6v5.46h18.06v-5.46l-2.82-.78-7.02-9.36 7.26-10.2 2.28-.78v-5.46h-12.84v5.46l2.52.66-3.84 6h-.24l-3.84-6 2.52-.66v-5.46h-18.3v5.46l2.88.9 7.14 9.42-7.68 10.02-2.88.78v5.46zm49.74.66c3.48 0 6.3-.84 7.74-1.74v-5.7c-.84.24-1.92.42-2.94.42-2.64 0-3.9-.84-3.9-3.66v-15.48h6.48v-6.54h-6.48v-7.5h-8.64l-1.38 7.44-4.38 1.62v4.98h3.42v17.28c0 6.78 3.6 8.88 10.08 8.88zm-106.32 52.58c-10.2 0-15.18-3.06-15.18-7.32 0-3.54 3.12-5.52 6.72-6.48v-.3c-2.82-.84-4.2-2.58-4.2-5.16s2.04-5.1 4.62-6.78c-2.94-1.62-4.92-4.38-4.92-8.1 0-6.96 5.76-10.8 14.1-10.8 2.64 0 4.92.36 6.78 1.02l10.26-1.44v6.48l-4.32-.18c.84 1.26 1.38 2.58 1.38 4.26 0 6.96-5.58 10.8-14.1 10.8-1.62 0-3.06-.12-4.44-.42-.48.54-.72 1.26-.72 1.8 0 .78.54 1.62 2.22 1.62h10.38c5.52 0 9.9 2.4 9.9 8.76 0 6.66-5.4 12.24-18.48 12.24zm.84-6.12c5.58 0 7.56-1.68 7.56-3.66 0-1.74-1.02-2.28-3.78-2.28h-7.56c-1.26.54-2.1 1.44-2.1 2.94 0 1.74 1.56 3 5.88 3zm.3-23.22c2.16 0 3.84-1.26 3.84-5.04 0-4.2-1.68-5.16-3.84-5.16s-3.72 1.2-3.72 4.98c0 3.96 1.62 5.22 3.72 5.22zm35.82 17.88c-11.22 0-17.1-6.06-17.1-16.86 0-10.5 6.48-16.62 16.2-16.62 9.9 0 14.58 4.92 14.58 18.36h-19.38c.6 5.64 3.6 7.62 8.7 7.62 4.2 0 6.9-.78 9.18-1.5v5.82c-2.28 1.56-6.06 3.18-12.18 3.18zm-5.7-20.22l8.7-.36c0-4.98-1.68-6.48-4.02-6.48-2.46 0-4.26 1.5-4.68 6.84zm21.36 19.44h16.98v-5.46l-2.52-.66v-17.46c1.26-.42 2.46-.78 4.02-.78 2.52 0 3.72.84 3.72 3.42v14.82l-2.52.66v5.46h16.74v-5.46l-3.18-.84v-18.48c0-5.7-3.42-7.92-8.34-7.92-4.44 0-7.5 1.56-10.56 3.9h-.36v-3.42l-.96-.42-13.2 1.38v5.58l3.6.96v18.42l-3.42.84v5.46zm55.2.78c-11.22 0-17.1-6.06-17.1-16.86 0-10.5 6.48-16.62 16.2-16.62 9.9 0 14.58 4.92 14.58 18.36h-19.38c.6 5.64 3.6 7.62 8.7 7.62 4.2 0 6.9-.78 9.18-1.5v5.82c-2.28 1.56-6.06 3.18-12.18 3.18zm-5.7-20.22l8.7-.36c0-4.98-1.68-6.48-4.02-6.48-2.46 0-4.26 1.5-4.68 6.84zm21.36 19.44h18.9v-5.46l-4.44-.84v-15.48c1.8-.84 3.84-1.2 6.78-1.2 1.02 0 2.1.12 2.82.3v-9.72c-.42-.12-1.08-.18-1.62-.18-3.66 0-6.42 2.28-8.1 5.16h-.36v-4.8l-.96-.42-13.2 1.38v5.58l3.6.96v18.42l-3.42.84v5.46zm34.86.78c-5.76 0-9.48-3.6-9.48-8.76 0-6.3 4.44-8.34 11.7-9.66l5.58-1.08v-1.56c0-3.24-1.2-4.44-6-4.44-2.82 0-6.06.24-8.22.6v-6.36c3.06-1.08 7.98-2.22 13.44-2.22 8.1 0 11.76 3.36 11.76 10.5v14.28c0 1.5.96 1.92 2.16 1.92h.96v5.22c-1.08.72-3.78 1.5-6.42 1.5-3.48 0-5.58-1.08-6.48-3.72h-.3c-1.62 2.04-4.62 3.78-8.7 3.78zm4.68-6.36c1.32 0 2.52-.6 3.12-1.2v-6.9l-2.82.12c-2.46.18-3.54 1.44-3.54 4.02 0 2.7.96 3.96 3.24 3.96zm32.04 6.24c3.48 0 6.3-.84 7.74-1.74v-5.7c-.84.24-1.92.42-2.94.42-2.64 0-3.9-.84-3.9-3.66v-15.48h6.48v-6.54h-6.48v-7.5h-8.64l-1.38 7.44-4.38 1.62v4.98h3.42v17.28c0 6.78 3.6 8.88 10.08 8.88zm9.9-.66h17.7v-5.46l-3.24-.84v-25.92l-1.02-.42-13.74 1.38v5.58l3.72.96v18.42l-3.42.84v5.46zm8.64-34.62c3.36 0 6.06-2.04 6.06-5.4 0-3.3-2.7-5.34-6.06-5.34-3.3 0-6.06 2.04-6.06 5.34 0 3.36 2.76 5.4 6.06 5.4zm27.48 28.8c2.94 0 4.86-2.1 4.86-9.96 0-8.28-2.04-10.38-5.04-10.38-2.94 0-4.92 1.86-4.92 9.96 0 8.28 2.04 10.38 5.1 10.38zm-.06 6.6c-10.74 0-16.62-6.42-16.62-16.56 0-11.04 7.32-16.92 16.56-16.92 10.68 0 16.62 6 16.62 16.5 0 10.98-7.38 16.98-16.56 16.98zm18.36-.78h16.98v-5.46l-2.52-.66v-17.46c1.26-.42 2.46-.78 4.02-.78 2.52 0 3.72.84 3.72 3.42v14.82l-2.52.66v5.46h16.74v-5.46l-3.18-.84v-18.48c0-5.7-3.42-7.92-8.34-7.92-4.44 0-7.5 1.56-10.56 3.9h-.36v-3.42l-.96-.42-13.2 1.38v5.58l3.6.96v18.42l-3.42.84v5.46z" fill="#fff"/></g></svg>

<?xml version="1.0" encoding="UTF-8" standalone="no"?>
<svg width="419px" height="94px" viewBox="0 0 419 94" version="1.1" xmlns="http://www.w3.org/2000/svg" xmlns:xlink="http://www.w3.org/1999/xlink">
    <!-- Generator: Sketch 47.1 (45422) - http://www.bohemiancoding.com/sketch -->
    <title>Title</title>
    <desc>Created with Sketch.</desc>
    <defs></defs>
    <g id="Final" stroke="none" stroke-width="1" fill="none" fill-rule="evenodd">
        <g id="Desktop-Copy" transform="translate(-20.000000, -211.000000)">
            <g id="Title" transform="translate(20.000000, 211.000000)">
                <path d="M291,29.3426415 L309.431012,29.3426415 C309.431012,19.6883019 309.979554,12.5572556 310.747513,4.76795883 L297.801921,4.76795883 C294.181544,12.0087136 291.877667,20.4562607 291,29.3426415 Z M317.659142,80.7958834 L359.348336,80.7958834 L359.348336,70.1541681 L349.803705,68.2891252 L349.803705,4 L339.052281,4 L316.781475,14.5320069 L316.781475,25.1737221 L327.42319,24.4057633 L327.42319,68.2891252 L317.659142,70.1541681 L317.659142,80.7958834 Z M370.977427,80.7958834 L395.771527,80.7958834 L418.92,17.0553002 L418.92,4.76795883 L364.504631,4.76795883 L363.407547,28.2455575 L375.365763,28.2455575 L378.218182,20.4562607 L404.109365,20.4562607 L404.109365,21.0048027 L370.977427,80.7958834 Z" id="‘17" fill="#EC2991"></path>
                <path d="M0.84,40 L17.82,40 L17.82,34.54 L15.3,33.88 L15.3,16.42 C16.56,16 17.76,15.64 19.32,15.64 C21.84,15.64 23.04,16.48 23.04,19.06 L23.04,33.88 L20.52,34.54 L20.52,40 L37.26,40 L37.26,34.54 L34.08,33.7 L34.08,15.22 C34.08,9.52 30.66,7.3 25.74,7.3 C21.3,7.3 18.24,8.86 15.18,11.2 L14.82,11.2 L14.82,7.78 L13.86,7.36 L0.66,8.74 L0.66,14.32 L4.26,15.28 L4.26,33.7 L0.84,34.54 L0.84,40 Z M56.04,40.78 C44.82,40.78 38.94,34.72 38.94,23.92 C38.94,13.42 45.42,7.3 55.14,7.3 C65.04,7.3 69.72,12.22 69.72,25.66 L50.34,25.66 C50.94,31.3 53.94,33.28 59.04,33.28 C63.24,33.28 65.94,32.5 68.22,31.78 L68.22,37.6 C65.94,39.16 62.16,40.78 56.04,40.78 Z M50.34,20.56 L59.04,20.2 C59.04,15.22 57.36,13.72 55.02,13.72 C52.56,13.72 50.76,15.22 50.34,20.56 Z M71.76,40 L85.44,40 L85.44,34.54 L82.86,33.94 L86.88,28.06 L87.06,28.06 L91.08,33.94 L88.56,34.54 L88.56,40 L106.62,40 L106.62,34.54 L103.8,33.76 L96.78,24.4 L104.04,14.2 L106.32,13.42 L106.32,7.96 L93.48,7.96 L93.48,13.42 L96,14.08 L92.16,20.08 L91.92,20.08 L88.08,14.08 L90.6,13.42 L90.6,7.96 L72.3,7.96 L72.3,13.42 L75.18,14.32 L82.32,23.74 L74.64,33.76 L71.76,34.54 L71.76,40 Z M121.5,40.66 C124.98,40.66 127.8,39.82 129.24,38.92 L129.24,33.22 C128.4,33.46 127.32,33.64 126.3,33.64 C123.66,33.64 122.4,32.8 122.4,29.98 L122.4,14.5 L128.88,14.5 L128.88,7.96 L122.4,7.96 L122.4,0.46 L113.76,0.46 L112.38,7.9 L108,9.52 L108,14.5 L111.42,14.5 L111.42,31.78 C111.42,38.56 115.02,40.66 121.5,40.66 Z M15.18,93.24 C4.98,93.24 0,90.18 0,85.92 C0,82.38 3.12,80.4 6.72,79.44 L6.72,79.14 C3.9,78.3 2.52,76.56 2.52,73.98 C2.52,71.4 4.56,68.88 7.14,67.2 C4.2,65.58 2.22,62.82 2.22,59.1 C2.22,52.14 7.98,48.3 16.32,48.3 C18.96,48.3 21.24,48.66 23.1,49.32 L33.36,47.88 L33.36,54.36 L29.04,54.18 C29.88,55.44 30.42,56.76 30.42,58.44 C30.42,65.4 24.84,69.24 16.32,69.24 C14.7,69.24 13.26,69.12 11.88,68.82 C11.4,69.36 11.16,70.08 11.16,70.62 C11.16,71.4 11.7,72.24 13.38,72.24 L23.76,72.24 C29.28,72.24 33.66,74.64 33.66,81 C33.66,87.66 28.26,93.24 15.18,93.24 Z M16.02,87.12 C21.6,87.12 23.58,85.44 23.58,83.46 C23.58,81.72 22.56,81.18 19.8,81.18 L12.24,81.18 C10.98,81.72 10.14,82.62 10.14,84.12 C10.14,85.86 11.7,87.12 16.02,87.12 Z M16.32,63.9 C18.48,63.9 20.16,62.64 20.16,58.86 C20.16,54.66 18.48,53.7 16.32,53.7 C14.16,53.7 12.6,54.9 12.6,58.68 C12.6,62.64 14.22,63.9 16.32,63.9 Z M52.14,81.78 C40.92,81.78 35.04,75.72 35.04,64.92 C35.04,54.42 41.52,48.3 51.24,48.3 C61.14,48.3 65.82,53.22 65.82,66.66 L46.44,66.66 C47.04,72.3 50.04,74.28 55.14,74.28 C59.34,74.28 62.04,73.5 64.32,72.78 L64.32,78.6 C62.04,80.16 58.26,81.78 52.14,81.78 Z M46.44,61.56 L55.14,61.2 C55.14,56.22 53.46,54.72 51.12,54.72 C48.66,54.72 46.86,56.22 46.44,61.56 Z M67.8,81 L84.78,81 L84.78,75.54 L82.26,74.88 L82.26,57.42 C83.52,57 84.72,56.64 86.28,56.64 C88.8,56.64 90,57.48 90,60.06 L90,74.88 L87.48,75.54 L87.48,81 L104.22,81 L104.22,75.54 L101.04,74.7 L101.04,56.22 C101.04,50.52 97.62,48.3 92.7,48.3 C88.26,48.3 85.2,49.86 82.14,52.2 L81.78,52.2 L81.78,48.78 L80.82,48.36 L67.62,49.74 L67.62,55.32 L71.22,56.28 L71.22,74.7 L67.8,75.54 L67.8,81 Z M123,81.78 C111.78,81.78 105.9,75.72 105.9,64.92 C105.9,54.42 112.38,48.3 122.1,48.3 C132,48.3 136.68,53.22 136.68,66.66 L117.3,66.66 C117.9,72.3 120.9,74.28 126,74.28 C130.2,74.28 132.9,73.5 135.18,72.78 L135.18,78.6 C132.9,80.16 129.12,81.78 123,81.78 Z M117.3,61.56 L126,61.2 C126,56.22 124.32,54.72 121.98,54.72 C119.52,54.72 117.72,56.22 117.3,61.56 Z M138.66,81 L157.56,81 L157.56,75.54 L153.12,74.7 L153.12,59.22 C154.92,58.38 156.96,58.02 159.9,58.02 C160.92,58.02 162,58.14 162.72,58.32 L162.72,48.6 C162.3,48.48 161.64,48.42 161.1,48.42 C157.44,48.42 154.68,50.7 153,53.58 L152.64,53.58 L152.64,48.78 L151.68,48.36 L138.48,49.74 L138.48,55.32 L142.08,56.28 L142.08,74.7 L138.66,75.54 L138.66,81 Z M173.52,81.78 C167.76,81.78 164.04,78.18 164.04,73.02 C164.04,66.72 168.48,64.68 175.74,63.36 L181.32,62.28 L181.32,60.72 C181.32,57.48 180.12,56.28 175.32,56.28 C172.5,56.28 169.26,56.52 167.1,56.88 L167.1,50.52 C170.16,49.44 175.08,48.3 180.54,48.3 C188.64,48.3 192.3,51.66 192.3,58.8 L192.3,73.08 C192.3,74.58 193.26,75 194.46,75 L195.42,75 L195.42,80.22 C194.34,80.94 191.64,81.72 189,81.72 C185.52,81.72 183.42,80.64 182.52,78 L182.22,78 C180.6,80.04 177.6,81.78 173.52,81.78 Z M178.2,75.42 C179.52,75.42 180.72,74.82 181.32,74.22 L181.32,67.32 L178.5,67.44 C176.04,67.62 174.96,68.88 174.96,71.46 C174.96,74.16 175.92,75.42 178.2,75.42 Z M210.24,81.66 C213.72,81.66 216.54,80.82 217.98,79.92 L217.98,74.22 C217.14,74.46 216.06,74.64 215.04,74.64 C212.4,74.64 211.14,73.8 211.14,70.98 L211.14,55.5 L217.62,55.5 L217.62,48.96 L211.14,48.96 L211.14,41.46 L202.5,41.46 L201.12,48.9 L196.74,50.52 L196.74,55.5 L200.16,55.5 L200.16,72.78 C200.16,79.56 203.76,81.66 210.24,81.66 Z M220.14,81 L237.84,81 L237.84,75.54 L234.6,74.7 L234.6,48.78 L233.58,48.36 L219.84,49.74 L219.84,55.32 L223.56,56.28 L223.56,74.7 L220.14,75.54 L220.14,81 Z M228.78,46.38 C232.14,46.38 234.84,44.34 234.84,40.98 C234.84,37.68 232.14,35.64 228.78,35.64 C225.48,35.64 222.72,37.68 222.72,40.98 C222.72,44.34 225.48,46.38 228.78,46.38 Z M256.26,75.18 C259.2,75.18 261.12,73.08 261.12,65.22 C261.12,56.94 259.08,54.84 256.08,54.84 C253.14,54.84 251.16,56.7 251.16,64.8 C251.16,73.08 253.2,75.18 256.26,75.18 Z M256.2,81.78 C245.46,81.78 239.58,75.36 239.58,65.22 C239.58,54.18 246.9,48.3 256.14,48.3 C266.82,48.3 272.76,54.3 272.76,64.8 C272.76,75.78 265.38,81.78 256.2,81.78 Z M274.56,81 L291.54,81 L291.54,75.54 L289.02,74.88 L289.02,57.42 C290.28,57 291.48,56.64 293.04,56.64 C295.56,56.64 296.76,57.48 296.76,60.06 L296.76,74.88 L294.24,75.54 L294.24,81 L310.98,81 L310.98,75.54 L307.8,74.7 L307.8,56.22 C307.8,50.52 304.38,48.3 299.46,48.3 C295.02,48.3 291.96,49.86 288.9,52.2 L288.54,52.2 L288.54,48.78 L287.58,48.36 L274.38,49.74 L274.38,55.32 L277.98,56.28 L277.98,74.7 L274.56,75.54 L274.56,81 Z" id="next-generation" fill="#FFFFFF"></path>
            </g>
        </g>
    </g>
</svg>
